X: 3
T: The Rose Tree
R: polka
M: 2/4
L: 1/8
K: Dmaj
f/e/|dB AF|A2 AB/c/|d2 f/e/d/e/|fee
f/e/|dB AF|A2 AB/c/|d2 {f}ed/e/|fdd:|
e|fefg|a2gf|.e.bba|bee
f/e/|dB AF|A2 AB/c/|d2 f/e/d/e/|fdd:|


Tune 1123	Setting 14385

